public/images/hero/linkedIn.svg

<svg xmlns="http://www.w3.org/2000/svg" width="16" height="16" viewBox="0 0 24 24" fill="none" class="injected-svg" data-src="https://cdn.hugeicons.com/icons/linkedin-01-solid-standard.svg" xmlns:xlink="http://www.w3.org/1999/xlink" role="img" color="#0077b5">
<path fill-rule="evenodd" clip-rule="evenodd" d="M4.5 1.75C2.98122 1.75 1.75 2.98122 1.75 4.5L1.75 19.5C1.75 21.0188 2.98122 22.25 4.5 22.25L19.5 22.25C21.0188 22.25 22.25 21.0188 22.25 19.5L22.25 4.5C22.25 2.98122 21.0188 1.75 19.5 1.75L4.5 1.75ZM8.25898 6.36914C8.25898 7.0595 7.69934 7.61914 7.00898 7.61914H7C6.30964 7.61914 5.75 7.0595 5.75 6.36914C5.75 5.67878 6.30964 5.11914 7 5.11914H7.00898C7.69934 5.11914 8.25898 5.67878 8.25898 6.36914ZM7.00117 8.5C7.55345 8.5 8.00117 8.94772 8.00117 9.5L8.00117 17C8.00117 17.5523 7.55345 18 7.00117 18C6.44888 18 6.00117 17.5523 6.00117 17L6.00117 9.5C6.00117 8.94772 6.44888 8.5 7.00117 8.5ZM11.001 8.5C11.5533 8.5 12.001 8.94772 12.001 9.5V9.53513C12.5893 9.19479 13.2724 9 14.001 9C16.2101 9 18.001 10.7909 18.001 13V17C18.001 17.5523 17.5533 18 17.001 18C16.4487 18 16.001 17.5523 16.001 17V13C16.001 11.8954 15.1055 11 14.001 11C12.8964 11 12.001 11.8954 12.001 13V17C12.001 17.5523 11.5533 18 11.001 18C10.4487 18 10.001 17.5523 10.001 17L10.001 9.5C10.001 8.94772 10.4487 8.5 11.001 8.5Z" fill="#0077b5"></path>
</svg>

<svg xmlns="http://www.w3.org/2000/svg" width="24" height="24" viewBox="0 0 24 24" fill="none" role="img">
  <!-- Background (Same as Logo Color) -->
  <rect width="24" height="24" rx="4" fill="#0077b5"/>

  <!-- LinkedIn "in" Logo (Always White) -->
  <path fill-rule="evenodd" clip-rule="evenodd" d="M8.259 6.37c0 .69-.56 1.25-1.25 1.25H7c-.69 0-1.25-.56-1.25-1.25 0-.69.56-1.25 1.25-1.25h.009c.69 0 1.25.56 1.25 1.25ZM7 8.5c.553 0 1 .448 1 1v7c0 .552-.447 1-1 1s-1-.448-1-1v-7c0-.552.447-1 1-1ZM11 8.5c.553 0 1 .448 1 1v.035C12.59 9.195 13.272 9 14.001 9c2.209 0 4 1.791 4 4v4c0 .552-.447 1-1 1s-1-.448-1-1v-4c0-1.105-.895-2-2-2-1.105 0-2 .895-2 2v4c0 .552-.447 1-1 1s-1-.448-1-1v-7c0-.552.447-1 1-1Z" fill="white"/>
</svg>
